X:4270
L:1/16
M:2/4
K:C
"C" gage cegc' |"G7" b2b2 b2>d'2 |"F" a2a2 a2>b2 |"C" a2g2 g4 | gage cegc' |"G" b2b2 b2bc' | 
"D7" d'2c'2 b2a2 |"G7" g4 f4 |"C" gage cegc' |"G7" b2b2 b2>d'2 |"F" a2a2 a2>b2 |"C" a2g2 g4 | 
 gage"C7" cegc' |"F" d'2a2 a4 |"G7" ^fgba g=fed |"C" c2e2 c2 z2 :|"G" Bed2 Bed2 |"D7" dccB c4 | 
"Am" cfe2 cfe2 |"G" edd^c d2d2 | Bed2 Bed2 |"Am" cfe2 cfe2 |"D7" defg a2f2 | 
"G" g2g2 g2"_>Teil A" z2 ||[K:F]"F" (A4 A)c=Bc | d6 c2 | a2f2 e2d2 |"C7" e6 z2 | (g4 g)abc' | 
 e6 d2 | c2d2 G2B2 |"F" A6 z2 | (A4 A)c=Bc | d6 c2 | A2c2 f2e2 |"Bb" d6 z2 |"Gm" (g4 g)fed | 
"F" (f4 f)edc |"C7" =Bced c_BAG |"F" F2A2 F2 z2 |]

